!!!OTL: ICH UND MEIN ALLERLIEBSTER HANS
!!!ARE: Europa, Mitteleuropa, Deutschland; France, Elsass
!!!SCT: E0609
!!!YEM: Copyright 1995, estate of Helmut Schaffrath.
**kern
*ICvox
*Ivox
*M3/4
*k[f#c#g#]
*A:
{8e
8f#
8g#
=1
4a
4a
8ee
8ee
=2
4cc#
8r}
{8a
8g#
8f#
=3
4e
8g#
8b
8dd
8g#
=4
4a
8r}
{8e
8f#
8g#
=5
4a
4a
8ee
8ee
=6
4cc#
8r}
{8a
8g#
8f#
=7
4e
8g#
8b
8dd
8g#
=8
4a
4r}
{8.cc#
16cc#
=9
4cc#
8cc#
8b
8a
8g#
=10
4f#
8r}
{8f#
8g#
8a
=11
8b
8ee
8b
8a
8g#
8f#
=12
4e
8r}
{8e
8f#
8g#
=13
8a
8cc#
8cc#
8b
8a
8g#
=14
4f#
8r}
{8a
8g#
8f#
=15
4e
8g#
8b
8dd
8g#
=16
4a
8r}
==
!!!AGN: Liebes - Lied
!!!ONB: ESAC (Essen Associative Code) Database: ERK1
!!!AMT: simple triple
!!!AIN: vox
!!!EED: Helmut Schaffrath
!!!EEV: 1.0
*-
